X: 26698
T: Mike Cooney's Fancy
R: jig
M: 6/8
K: Gmajor
|:d|GAB cAA|dcA G2g|gfd cAG|ADE FGA|
~B3 ~c3|dcA fga|~g3 afd|cAF G2:|
|:D|GBd gfg|dBG GAB|c2=f fef|~c3 =fcA|
[1d2g gfg|dcA fga|gfd cAF|ABF G2:|
[2~B3 ~c3|dcA fga|~g3 afd|cAF G2||

